X: 509
%
U:~=!turn!
T: Neil Gow's
C:D. Macintyre
O:Scotland
B:Keith Norman MacDonald : "The Skye collection of the best reels & strathspeys extant" : 1887
Z:Ralph Palmer
R:Strathspey
M:C
L:1/8
K:A
.f | e<c{/g}ae {/g}f<BB>Tf | e<c{/g}a>e {/g}f2 (fg) | a/2g/2f/2e/2 {/g}a>e f<BB>Tg | {fg}a>fe<c A2A ::
E | A<A {AB}c>A B<F~F>B | A<A c>e a>ef<a | e>ac<a B<F~F>g | a/2g/2f/2e/2 a<c A2 A :]


